src/48x48/places/folder-gruvbox-original-purple-applications.svg

<svg xmlns="http://www.w3.org/2000/svg" width="48" height="48" version="1">
 <rect style="opacity:0.2" width="40" height="26" x="4" y="17" rx="2" ry="2"/>
 <path style="fill:#8f3f71" d="M 4,34 C 4,35.108 4.892,36 6,36 H 42 C 43.108,36 44,35.108 44,34 V 12 C 44,10.892 43.108,10 42,10 H 24 C 21,10 20,6 17,6 H 6 C 4.892,6 4,6.892 4,8"/>
 <rect style="opacity:0.2" width="40" height="26" x="4" y="15" rx="2" ry="2"/>
 <rect style="fill:#E1D4B6" width="36" height="16" x="6" y="13" rx="2" ry="2"/>
 <rect style="fill:#d3869b" width="40" height="26" x="4" y="16" rx="2" ry="2"/>
 <path style="opacity:0.1" d="M 6,6 C 4.892,6 4,6.892 4,8 V 9 C 4,7.892 4.892,7 6,7 H 17 C 20,7 21,11 24,11 H 42 C 43.108,11 44,11.892 44,13 V 12 C 44,10.892 43.108,10 42,10 H 24 C 21,10 20,6 17,6 Z"/>
 <path style="fill:#393534" d="M 17.99981,21 C 16.891915,21 16,21.892 16,23 v 3 c 0,1.108 0.891915,2 1.99981,2 h 2.999715 c 1.107895,0 1.99981,-0.892 1.99981,-2 v -3 c 0,-1.108 -0.891915,-2 -1.99981,-2 z m 8.999146,0 c -1.107895,0 -1.999811,0.892 -1.999811,2 v 3 c 0,1.108 0.891916,2 1.999811,2 h 2.999715 c 1.107894,0 1.99981,-0.892 1.99981,-2 v -3 c 0,-1.108 -0.891916,-2 -1.99981,-2 z M 17.99981,30 C 16.891915,30 16,30.892 16,32 v 3 c 0,1.108 0.891915,2 1.99981,2 h 2.999715 c 1.107895,0 1.99981,-0.892 1.99981,-2 v -3 c 0,-1.108 -0.891915,-2 -1.99981,-2 z m 9.999051,0 c -0.553948,0 -0.999905,0.446 -0.999905,1 v 1 H 25.99905 c -0.847781,4.15e-4 -1.310476,0.989475 -0.767505,1.640625 l 2.499763,3 c 0.39975,0.478651 1.13526,0.478651 1.53501,0 l 2.499763,-3 C 32.309052,32.989475 31.846357,32.000415 30.998576,32 h -0.999905 v -1 c 0,-0.554 -0.445958,-1 -0.999905,-1 z"/>
</svg>

<?xml version="1.0" encoding="UTF-8"?>
<svg width="48" height="48" version="1" xmlns="http://www.w3.org/2000/svg">
 <rect x="4" y="17" width="40" height="26" rx="2" ry="2" opacity=".2"/>
 <path d="m4 34c0 1.108 0.892 2 2 2h36c1.108 0 2-0.892 2-2v-22c0-1.108-0.892-2-2-2h-18c-3 0-4-4-7-4h-11c-1.108 0-2 0.892-2 2" fill="#8f3f71"/>
 <rect x="4" y="15" width="40" height="26" rx="2" ry="2" opacity=".2"/>
 <rect x="6" y="13" width="36" height="16" rx="2" ry="2" fill="#E1D4B6"/>
 <rect x="4" y="16" width="40" height="26" rx="2" ry="2" fill="#d3869b"/>
 <path d="m6 6c-1.108 0-2 0.892-2 2v1c0-1.108 0.892-2 2-2h11c3 0 4 4 7 4h18c1.108 0 2 0.892 2 2v-1c0-1.108-0.892-2-2-2h-18c-3 0-4-4-7-4z" opacity=".1"/>
 <path d="m18 21c-1.1079 0-1.9998 0.892-1.9998 2v3c0 1.108 0.89192 2 1.9998 2h2.9997c1.1079 0 1.9998-0.892 1.9998-2v-3c0-1.108-0.89192-2-1.9998-2zm8.9991 0c-1.1079 0-1.9998 0.892-1.9998 2v3c0 1.108 0.89192 2 1.9998 2h2.9997c1.1079 0 1.9998-0.892 1.9998-2v-3c0-1.108-0.89192-2-1.9998-2zm-8.9991 9c-1.1079 0-1.9998 0.892-1.9998 2v3c0 1.108 0.89192 2 1.9998 2h2.9997c1.1079 0 1.9998-0.892 1.9998-2v-3c0-1.108-0.89192-2-1.9998-2zm9.9991 0c-0.55395 0-0.9999 0.446-0.9999 1v1h-0.99991c-0.84778 4.15e-4 -1.3105 0.98948-0.7675 1.6406l2.4998 3c0.39975 0.47865 1.1353 0.47865 1.535 0l2.4998-3c0.54297-0.65115 0.080276-1.6402-0.7675-1.6406h-0.9999v-1c0-0.554-0.44596-1-0.9999-1z" fill="#393534"/>
</svg>
